X: 23066
T: Late To Slumber, Early To Rise
R: reel
M: 4/4
K: Dmajor
|:d2AG FDDG|FDAG FDDA|d2AG FDDG|1 GAGF EDD2:|2 GAGF EAce||
|:[Dd]AAD AADA|DBBD BBDB|DAAD AADA|g2fd B/c/def:|

